X: 8230
T: Copper Mines Of Killarney, The
R: jig
M: 6/8
K: Dminor
d|:cAG F2D|EDC ~D2C|A,DF B,DF|CEG ~c2^c|
dAG GFD|EDC ~D2C|A,DF ADF|1 EDC D2d:|2 EDC D3||
|:ded ceg|efd ecA|dAd ceg|fed e2^g|
aeg fed|eAd cAG|GFD EAG|1 EDC D3:|2 EDC D2d||

